assets/icons/qvision/exposure_plus_1.svg

<svg xmlns="http://www.w3.org/2000/svg" height="24" viewBox="0 0 24 24" width="24"><path d="M0 0h24v24H0zm0 0h24v24H0z" fill="none"/><path d="M10 7H8v4H4v2h4v4h2v-4h4v-2h-4V7zm10 11h-2V7.38L15 8.4V6.7L19.7 5h.3v13z"/></svg>

<svg width="24" height="24" viewBox="0 0 24 24" fill="none" xmlns="http://www.w3.org/2000/svg">
<g clip-path="url(#clip0_147_3386)">
<path d="M10 7H8V11H4V13H8V17H10V13H14V11H10V7ZM20 18H18V7.38L15 8.4V6.7L19.7 5H20V18Z" fill="#323232"/>
</g>
<defs>
<clipPath id="clip0_147_3386">
<rect width="24" height="24" fill="white"/>
</clipPath>
</defs>
</svg>
